X: 20132
T: Seaton House
%R: air
B: James Oswald "The Caledonian Pocket Companion" v.2 p.13 #2
Z: 2019 John Chambers <jc:trillian.mit.edu>
M: C
L: 1/16
Q: "Plaintive"
K: F
%%slurgraces 1
%%graceslurs 1
"_Slow"(A3B) |\
c4 (AGF2) F4 (GAc2) | d3e f8 e3d |\
(c2A2)(d2c2) f2d2{d}c2A2 | {A}G12 (A3B) |\
c6 d2 c2(Ac) G2F2 |
f3g a8 (g3f) |\
{f}e2dc {B}A2af e4 (Td3c) | c12 :: (c3d) |\
{f}e4 (Td3c) g4 (G3A) | B2(cd) c2B2 {B}A6 f2 |
(e2d2) b2(ag) f4 Te3d/e/ | d12 f4 |\
{d}c2(BA) TG2F2 G6 A2 | (BA)G2 (ba)g2 {f}e6 f2 |\
d2(cd) (fdcd) A4 (TG3F) | F12 :|


